src/img/serie.svg

<svg width="53" height="53" viewBox="0 0 53 53" fill="none" xmlns="http://www.w3.org/2000/svg">
<path d="M52.2641 51.2328L50.5454 43.4984C50.5051 43.3387 50.4218 43.1931 50.3047 43.0773L39.3305 32.232C41.2993 29.971 43.0893 27.5603 44.6844 25.0218C45.4334 25.4291 46.2726 25.6418 47.1251 25.6406C48.3248 25.6395 49.4866 25.2201 50.4104 24.4546C51.3342 23.6891 51.9622 22.6254 52.1861 21.4467C52.41 20.2681 52.2159 19.0482 51.6372 17.9972C51.0585 16.9463 50.1315 16.13 49.0157 15.689C50.2962 11.0914 49.8579 7.51638 47.6751 5.32497C45.3805 3.03904 41.4446 2.64372 36.529 4.19919C36.2948 3.50324 35.9148 2.86532 35.4142 2.32812C34.9136 1.79091 34.3041 1.36682 33.6264 1.08421C32.9487 0.801604 32.2184 0.667003 31.4845 0.689414C30.7505 0.711826 30.0299 0.890733 29.3706 1.21416C28.7114 1.5376 28.1289 1.99809 27.662 2.56484C27.1952 3.13158 26.8547 3.7915 26.6635 4.50044C26.4723 5.20938 26.4347 5.95099 26.5532 6.67564C26.6718 7.40028 26.9437 8.09125 27.3508 8.70232C25.0426 10.2052 22.8403 11.8649 20.7594 13.6695L19.0321 11.9336C18.8659 11.7802 18.6481 11.6951 18.4219 11.6951C18.1958 11.6951 17.978 11.7802 17.8118 11.9336L16.9524 12.8015L15.4313 11.2804L15.9383 10.782C16.0713 10.6473 16.1567 10.4728 16.1815 10.2851C16.2063 10.0975 16.1692 9.90683 16.0758 9.74216L12.6383 3.72654C12.5178 3.52614 12.3234 3.38109 12.0969 3.32263L1.78444 0.744504C1.6406 0.708971 1.49006 0.71085 1.34715 0.749961C1.20425 0.789072 1.07373 0.864114 0.968033 0.967942C0.862416 1.07244 0.786166 1.2029 0.746945 1.34621C0.707723 1.48952 0.706913 1.64063 0.744595 1.78435L3.32272 12.0968C3.38118 12.3233 3.52623 12.5177 3.72663 12.6383L9.74225 16.0758C9.87336 16.1497 10.0214 16.1882 10.1719 16.1875C10.3999 16.1866 10.6187 16.0972 10.7821 15.9383L11.2805 15.4312L12.8016 16.9523L11.9337 17.8117C11.7739 17.9746 11.6844 18.1937 11.6844 18.4218C11.6844 18.65 11.7739 18.8691 11.9337 19.032L13.6696 20.7679C11.7014 23.0294 9.91143 25.44 8.31569 27.9781C7.56673 27.5709 6.72756 27.3581 5.87506 27.3593C4.67531 27.3604 3.51348 27.7798 2.58968 28.5453C1.66589 29.3108 1.03795 30.3745 0.81402 31.5532C0.590093 32.7319 0.784195 33.9517 1.3629 35.0027C1.9416 36.0537 2.86867 36.8699 3.98444 37.3109C2.70397 41.9086 3.15085 45.4836 5.33366 47.6664C6.10517 48.3774 7.01157 48.9263 7.99913 49.2806C8.98669 49.6349 10.0353 49.7873 11.0829 49.7289C12.9135 49.6867 14.7272 49.368 16.4626 48.7836C16.8561 49.9397 17.6472 50.9187 18.6951 51.5461C19.7429 52.1735 20.9795 52.4085 22.1844 52.2094C23.3894 52.0103 24.4846 51.3899 25.2749 50.4588C26.0652 49.5277 26.4994 48.3463 26.5001 47.125C26.5002 46.1194 26.2043 45.1361 25.6493 44.2976C27.9547 42.7946 30.1542 41.1349 32.2321 39.3304L43.0774 50.3047C43.1932 50.4218 43.3388 50.505 43.4985 50.5453L51.2329 52.264C51.2954 52.274 51.3586 52.2798 51.4219 52.2812C51.6502 52.2819 51.8695 52.1923 52.0321 52.032C52.1339 51.9284 52.2084 51.8011 52.2489 51.6616C52.2894 51.5222 52.2946 51.3748 52.2641 51.2328ZM48.4829 43.6875L46.6954 45.475L36.5204 35.3086C37.0876 34.7328 37.6376 34.1398 38.1962 33.5211L48.4829 43.6875ZM50.5626 20.4843C50.5626 21.1642 50.361 21.8288 49.9832 22.3941C49.6055 22.9594 49.0687 23.4 48.4405 23.6602C47.8124 23.9204 47.1212 23.9884 46.4544 23.8558C45.7876 23.7232 45.1751 23.3958 44.6944 22.915C44.2136 22.4343 43.8862 21.8218 43.7536 21.155C43.621 20.4882 43.689 19.797 43.9492 19.1689C44.2094 18.5408 44.65 18.0039 45.2153 17.6262C45.7806 17.2485 46.4452 17.0468 47.1251 17.0468C48.0367 17.0468 48.9111 17.409 49.5557 18.0537C50.2004 18.6983 50.5626 19.5727 50.5626 20.4843ZM31.6563 2.43747C32.3362 2.43747 33.0008 2.63908 33.5661 3.0168C34.1314 3.39451 34.572 3.93138 34.8321 4.5595C35.0923 5.18762 35.1604 5.87879 35.0278 6.5456C34.8951 7.2124 34.5677 7.82491 34.087 8.30565C33.6062 8.78639 32.9937 9.11378 32.3269 9.24642C31.6601 9.37906 30.969 9.31098 30.3408 9.05081C29.7127 8.79063 29.1759 8.35004 28.7981 7.78474C28.4204 7.21945 28.2188 6.55485 28.2188 5.87497C28.2188 4.96329 28.581 4.08895 29.2256 3.44429C29.8703 2.79964 30.7446 2.43747 31.6563 2.43747ZM18.4219 13.7554L31.8368 27.1703C31.0719 28.0125 30.3157 28.8203 29.568 29.5679C28.8118 30.3328 28.0126 31.0804 27.1704 31.8367L13.7555 18.4218L18.4219 13.7554ZM27.1274 20.0289C33.4524 14.6922 38.0587 13.257 40.1212 12.8789C39.5883 15.8523 37.4829 20.5101 32.9712 25.8726L27.1274 20.0289ZM25.8727 32.9711C19.5477 38.3078 14.9415 39.7429 12.879 40.1211C13.4118 37.1476 15.5172 32.4898 20.029 27.1273L25.8727 32.9711ZM10.0258 14.2539L4.90397 11.3234L3.16803 4.37966L7.53366 8.75388L8.75397 7.53357L4.37975 3.16794L11.3235 4.90388L14.254 10.0258L10.0258 14.2539ZM12.5008 14.2195L14.2196 12.5008L15.7321 14.0133L14.0133 15.732L12.5008 14.2195ZM2.43756 32.5156C2.43756 31.8357 2.63917 31.1711 3.01689 30.6058C3.3946 30.0405 3.93147 29.5999 4.55959 29.3398C5.18771 29.0796 5.87888 29.0115 6.54569 29.1441C7.2125 29.2768 7.825 29.6042 8.30574 30.0849C8.78649 30.5657 9.11388 31.1782 9.24651 31.845C9.37915 32.5118 9.31108 33.2029 9.0509 33.8311C8.79072 34.4592 8.35013 34.9961 7.78484 35.3738C7.21954 35.7515 6.55494 35.9531 5.87506 35.9531C4.96338 35.9531 4.08904 35.5909 3.44438 34.9463C2.79973 34.3016 2.43756 33.4273 2.43756 32.5156ZM21.3438 50.5625C20.6639 50.5625 19.9993 50.3609 19.434 49.9831C18.8687 49.6054 18.4282 49.0686 18.168 48.4404C17.9078 47.8123 17.8397 47.1212 17.9724 46.4543C18.105 45.7875 18.4324 45.175 18.9131 44.6943C19.3939 44.2135 20.0064 43.8862 20.6732 43.7535C21.34 43.6209 22.0312 43.689 22.6593 43.9491C23.2874 44.2093 23.8243 44.6499 24.202 45.2152C24.5797 45.7805 24.7813 46.4451 24.7813 47.125C24.7813 48.0366 24.4191 48.911 23.7745 49.5556C23.1298 50.2003 22.2555 50.5625 21.3438 50.5625ZM31.7165 37.5172C29.4398 39.5357 27.0122 41.3773 24.4547 43.0257C23.5624 42.3405 22.4689 41.9689 21.3438 41.9687C19.9873 41.9709 18.6861 42.5066 17.7213 43.4601C16.7565 44.4136 16.2056 45.7084 16.1876 47.0648C11.8133 48.5 8.40163 48.3023 6.55397 46.4461C4.83522 44.7359 4.54303 41.6336 5.66881 37.6632C5.73756 37.6632 5.80631 37.6718 5.87506 37.6718C6.87536 37.6741 7.85461 37.3847 8.69301 36.8391C9.53141 36.2935 10.1926 35.5153 10.5956 34.5998C10.9987 33.6843 11.1261 32.6712 10.9623 31.6844C10.7985 30.6976 10.3507 29.7799 9.6735 29.0437C11.2269 26.5576 12.971 24.1958 14.8899 21.9797L18.8172 25.907C11.9938 33.9679 11.1258 39.5195 11.0313 41.0578C11.024 41.1781 11.0425 41.2986 11.0854 41.4112C11.1284 41.5239 11.1949 41.626 11.2805 41.7109C11.3601 41.7921 11.455 41.8567 11.5598 41.901C11.6645 41.9452 11.777 41.9682 11.8907 41.9687H11.9337C15.1563 41.7968 20.9915 39.5281 27.7118 33.6672C28.8118 32.6961 29.8172 31.7507 30.7797 30.7797C31.7422 29.8257 32.679 28.8203 33.6672 27.7117C40.9805 19.307 41.8657 13.5148 41.9688 11.9422C41.9747 11.8217 41.9555 11.7013 41.9124 11.5887C41.8693 11.476 41.8032 11.3736 41.7183 11.2879C41.6334 11.2022 41.5316 11.1352 41.4194 11.091C41.3072 11.0468 41.187 11.0264 41.0665 11.0312C37.9469 11.2031 32.361 13.3429 25.9071 18.8086L21.9797 14.8898C24.0501 13.0991 26.2441 11.4565 28.5454 9.97419C29.4377 10.6595 30.5312 11.031 31.6563 11.0312C33.0128 11.0291 34.314 10.4934 35.2788 9.53985C36.2436 8.58631 36.7945 7.29149 36.8126 5.93513C41.1868 4.49997 44.6071 4.69763 46.4547 6.54528C48.1649 8.25544 48.4571 11.3664 47.3313 15.3367C47.2626 15.3367 47.1938 15.3281 47.1251 15.3281C46.1248 15.3258 45.1455 15.6152 44.3071 16.1608C43.4687 16.7064 42.8075 17.4846 42.4045 18.4001C42.0015 19.3156 41.874 20.3287 42.0378 21.3155C42.2016 22.3023 42.6495 23.22 43.3266 23.9562C41.6169 26.7052 39.6732 29.3015 37.5172 31.7164C36.5977 32.7562 35.6524 33.7703 34.7071 34.707C33.7618 35.6437 32.7563 36.5976 31.7165 37.5172ZM33.5212 38.1961C34.1399 37.6375 34.7329 37.0875 35.3087 36.5203L45.4837 46.6953L43.6876 48.4828L33.5212 38.1961ZM45.3977 49.2047L49.2047 45.3976L50.2876 50.2875L45.3977 49.2047Z" fill="url(#paint0_linear)"/>
<defs>
<linearGradient id="paint0_linear" x1="26.5003" y1="0.687012" x2="26.5003" y2="52.2812" gradientUnits="userSpaceOnUse">
<stop stop-color="#36B1FF"/>
<stop offset="1" stop-color="#8843FB"/>
</linearGradient>
</defs>
</svg>

<svg width="53" height="53" fill="none" xmlns="http://www.w3.org/2000/svg"><path d="m52.264 51.233-1.719-7.735a.903.903 0 0 0-.24-.42L39.33 32.231a57.844 57.844 0 0 0 5.353-7.21c.75.407 1.589.62 2.441.619a5.156 5.156 0 0 0 1.89-9.952c1.281-4.598.843-8.173-1.34-10.364-2.294-2.286-6.23-2.681-11.146-1.126a5.157 5.157 0 1 0-9.178 4.503 60.18 60.18 0 0 0-6.592 4.967l-1.727-1.735a.9.9 0 0 0-1.22 0l-.86.868-1.52-1.522.506-.498a.87.87 0 0 0 .138-1.04l-3.438-6.015a.892.892 0 0 0-.541-.404L1.784.745a.868.868 0 0 0-.816.223.846.846 0 0 0-.223.816l2.578 10.313a.89.89 0 0 0 .404.541l6.015 3.438a.88.88 0 0 0 1.04-.138l.498-.507 1.522 1.521-.868.86a.871.871 0 0 0 0 1.22l1.736 1.736a58.035 58.035 0 0 0-5.354 7.21 5.095 5.095 0 0 0-2.44-.619 5.157 5.157 0 0 0-1.892 9.952c-1.28 4.598-.833 8.173 1.35 10.355a7.84 7.84 0 0 0 5.749 2.063 18.183 18.183 0 0 0 5.38-.945A5.156 5.156 0 0 0 26.5 47.125a5.122 5.122 0 0 0-.85-2.827 60.089 60.089 0 0 0 6.582-4.968l10.845 10.975c.116.117.262.2.422.24l7.734 1.719c.062.01.126.016.189.017a.865.865 0 0 0 .61-.249.878.878 0 0 0 .232-.8Zm-3.781-7.545-1.788 1.787L36.52 35.309a56.191 56.191 0 0 0 1.676-1.788l10.287 10.166Zm2.08-23.204a3.437 3.437 0 1 1-6.874 0 3.437 3.437 0 0 1 6.874 0ZM31.656 2.437a3.438 3.438 0 1 1 0 6.876 3.438 3.438 0 0 1 0-6.876ZM18.422 13.755 31.837 27.17a69.13 69.13 0 0 1-2.269 2.398 55.575 55.575 0 0 1-2.398 2.269L13.755 18.422l4.667-4.667Zm8.705 6.274c6.325-5.337 10.932-6.772 12.994-7.15-.533 2.973-2.638 7.631-7.15 12.994l-5.844-5.844ZM25.873 32.97c-6.325 5.337-10.932 6.772-12.994 7.15.533-2.973 2.638-7.631 7.15-12.994l5.844 5.844ZM10.026 14.254l-5.122-2.93L3.168 4.38l4.366 4.374 1.22-1.22L4.38 3.168l6.943 1.736 2.931 5.122-4.228 4.228Zm2.475-.034 1.719-1.72 1.512 1.513-1.719 1.719-1.512-1.512ZM2.438 32.516a3.438 3.438 0 1 1 6.875 0 3.438 3.438 0 0 1-6.875 0Zm18.906 18.047a3.437 3.437 0 1 1 0-6.874 3.437 3.437 0 0 1 0 6.873Zm10.372-13.046a59.696 59.696 0 0 1-7.261 5.509 5.11 5.11 0 0 0-3.111-1.057 5.165 5.165 0 0 0-5.156 5.096c-4.375 1.435-7.786 1.237-9.634-.619-1.719-1.71-2.011-4.812-.885-8.783.069 0 .137.009.206.009a5.145 5.145 0 0 0 3.799-8.628 56.65 56.65 0 0 1 5.216-7.064l3.927 3.927c-6.823 8.06-7.691 13.613-7.786 15.15a.848.848 0 0 0 .25.654.86.86 0 0 0 .61.258h.043c3.222-.172 9.057-2.44 15.778-8.302a62.829 62.829 0 0 0 3.068-2.887 67.8 67.8 0 0 0 2.887-3.068c7.313-8.405 8.199-14.197 8.302-15.77a.87.87 0 0 0-.903-.91c-3.12.171-8.705 2.31-15.159 7.777l-3.927-3.92a58.278 58.278 0 0 1 6.565-4.915 5.109 5.109 0 0 0 3.111 1.057 5.165 5.165 0 0 0 5.157-5.096c4.374-1.435 7.794-1.237 9.642.61 1.71 1.71 2.002 4.821.876 8.792-.068 0-.137-.009-.206-.009a5.145 5.145 0 0 0-3.798 8.628 56.29 56.29 0 0 1-5.81 7.76 62.799 62.799 0 0 1-2.81 2.991 72.47 72.47 0 0 1-2.99 2.81Zm1.805.68a56.191 56.191 0 0 0 1.788-1.677l10.175 10.175-1.796 1.788L33.52 38.196Zm11.877 11.008 3.807-3.807 1.083 4.89-4.89-1.083Z" fill="url(#a)"/><defs><linearGradient id="a" x1="26.5" y1=".687" x2="26.5" y2="52.281" gradientUnits="userSpaceOnUse"><stop stop-color="#36B1FF"/><stop offset="1" stop-color="#8843FB"/></linearGradient></defs></svg>
